;FLAVOR:Marlin
;TIME:9522
;Filament used: 6.26902m
;Layer height: 0.18
;MINX:66.891
;MINY:76.725
;MINZ:0.3
;MAXX:153.123
;MAXY:143.275
;MAXZ:24.56
;Generated with Cura_SteamEngine 4.7.1
M140 S65
M105
M190 S65
M104 S210
M105
M109 S210
M82 ;absolute extrusion mode
G28 ;Home
G1 Z15.0 F2000 ;Move the platform
G92 E0
G92 E0
G1 F1500 E-6.5
;LAYER_COUNT:133
;LAYER:0
M107
M204 S1000
G1 F300 Z0.8
G0 F6000 X78.628 Y77.864 Z0.8
;TYPE:SKIRT
G1 F300 Z0.3
G1 F1500 E0
G1 F1200 X78.982 Y77.506 E0.02528
G1 X79.388 Y77.208 E0.05056
G1 X79.836 Y76.979 E0.07582
G1 X80.315 Y76.823 E0.10111
G1 X80.957 Y76.737 E0.13362
G1 X81.378 Y76.725 E0.15477
G1 X107.336 Y76.725 E1.45791
G1 X108.037 Y76.735 E1.49311
G1 X108.216 Y76.743 E1.5021
G1 X108.557 Y76.767 E1.51926
G1 X111.327 Y76.925 E1.65855
G1 X114.08 Y77.004 E1.79681
G1 X116.799 Y77.004 E1.93331
G1 X119.554 Y76.927 E2.07167
G1 X122.312 Y76.772 E2.21035
G1 X122.432 Y76.763 E2.21639
G1 X122.919 Y76.735 E2.24088
G1 X123.239 Y76.726 E2.25695
G1 X149.286 Y76.725 E3.56456
G1 X149.984 Y76.735 E3.5996
G1 X150.486 Y76.782 E3.62492
G1 X150.973 Y76.908 E3.65017
G1 X151.435 Y77.11 E3.67548
G1 X151.859 Y77.381 E3.70075
G1 X152.235 Y77.717 E3.72606
G1 X152.553 Y78.107 E3.75132
G1 X152.805 Y78.543 E3.7766
G1 X152.985 Y79.013 E3.80187
G1 X153.088 Y79.506 E3.82715
G1 X153.113 Y79.821 E3.84302
G1 X153.122 Y80.141 E3.85909
G1 X153.123 Y139.403 E6.83416
G1 X153.114 Y140.13 E6.87066
G1 X153.068 Y140.632 E6.89597
G1 X152.943 Y141.12 E6.92126
G1 X152.742 Y141.582 E6.94655
G1 X152.471 Y142.006 E6.97181
G1 X152.137 Y142.382 E6.99706
G1 X151.747 Y142.701 E7.02235
G1 X151.311 Y142.954 E7.04766
G1 X150.841 Y143.135 E7.07294
G1 X150.349 Y143.239 E7.09819
G1 X150.028 Y143.265 E7.11436
G1 X149.707 Y143.274 E7.13048
G1 X123.66 Y143.275 E8.43809
G1 X122.956 Y143.265 E8.47343
G1 X122.775 Y143.257 E8.48253
G1 X122.427 Y143.232 E8.50005
G1 X119.669 Y143.075 E8.63873
G1 X116.916 Y142.996 E8.77699
G1 X114.197 Y142.996 E8.91349
G1 X111.442 Y143.073 E9.05185
G1 X108.684 Y143.228 E9.19053
G1 X108.564 Y143.237 E9.19657
G1 X108.077 Y143.265 E9.22106
G1 X107.757 Y143.274 E9.23713
G1 X81.71 Y143.275 E10.54474
G1 X81.011 Y143.265 E10.57983
G1 X80.509 Y143.218 E10.60514
G1 X80.022 Y143.092 E10.6304
G1 X79.56 Y142.89 E10.65571
G1 X79.136 Y142.619 E10.68097
G1 X78.76 Y142.283 E10.70629
G1 X78.442 Y141.893 E10.73155
G1 X78.214 Y141.506 E10.7541
G1 X77.96 Y140.798 E10.79186
G1 X77.736 Y139.823 E10.84208
G1 X77.72 Y139.747 E10.84598
G1 X77.076 Y137.083 E10.98357
G1 X76.361 Y134.46 E11.12006
G1 X75.567 Y131.834 E11.25778
G1 X74.694 Y129.217 E11.39628
G1 X73.758 Y126.656 E11.53316
G1 X72.738 Y124.092 E11.67169
G1 X71.664 Y121.603 E11.80778
G1 X70.507 Y119.114 E11.94557
G1 X69.281 Y116.66 E12.08329
G1 X68.522 Y115.245 E12.1639
G1 X68.502 Y115.2 E12.16637
G1 X68.011 Y114.279 E12.21877
G1 X67.959 Y114.179 E12.22443
G1 X67.616 Y113.477 E12.26365
G1 X67.527 Y113.276 E12.27468
G1 X67.458 Y113.101 E12.28413
G1 X67.365 Y112.847 E12.29771
G1 X67.314 Y112.696 E12.30571
G1 X67.238 Y112.451 E12.31859
G1 X67.181 Y112.246 E12.32927
G1 X67.105 Y111.927 E12.34573
G1 X67.063 Y111.72 E12.35633
G1 X66.953 Y111.069 E12.38948
G1 X66.925 Y110.86 E12.40006
G1 X66.917 Y110.781 E12.40405
G1 X66.902 Y110.524 E12.41697
G1 X66.891 Y109.973 E12.44464
G1 X66.894 Y109.754 E12.45564
G1 X66.918 Y109.266 E12.48017
G1 X66.932 Y109.085 E12.48928
G1 X66.946 Y108.954 E12.49589
G1 X66.969 Y108.785 E12.50446
G1 X67.029 Y108.419 E12.52307
G1 X67.048 Y108.319 E12.52818
G1 X67.103 Y108.079 E12.54055
G1 X67.295 Y107.373 E12.57728
G1 X67.352 Y107.186 E12.58709
G1 X67.371 Y107.13 E12.59006
G1 X67.417 Y107.005 E12.59674
G1 X67.528 Y106.718 E12.61219
G1 X67.581 Y106.588 E12.61924
G1 X67.613 Y106.515 E12.62324
G1 X67.709 Y106.315 E12.63438
G1 X68.553 Y104.706 E12.72559
G1 X68.783 Y104.29 E12.74946
G1 X70.042 Y101.839 E12.88778
G1 X71.221 Y99.379 E13.02473
G1 X72.331 Y96.882 E13.16191
G1 X73.365 Y94.37 E13.29829
G1 X73.369 Y94.355 E13.29907
G1 X74.349 Y91.764 E13.43813
G1 X75.238 Y89.199 E13.57442
G1 X76.067 Y86.564 E13.71309
G1 X76.807 Y83.963 E13.84885
G1 X77.489 Y81.274 E13.98812
G1 X77.96 Y79.205 E14.09464
G1 X78.11 Y78.725 E14.11989
G1 X78.335 Y78.274 E14.14519
G1 X78.628 Y77.864 E14.17049
G1 F1500 E7.67049
G1 F300 Z0.8
;MESH:temperature_box.stl
G0 F6000 X82.973 Y81.825 Z0.8
;TYPE:WALL-INNER
G1 F300 Z0.3
G1 F1500 E14.17049
G1 F1200 X106.073 Y81.825 E15.33015
G1 X106.073 Y106.425 E16.56512
G1 X110.058 Y106.426 E16.76518
G1 X110.433 Y106.426 E16.78401
G1 X110.483 Y106.427 E16.78652
G1 X110.433 Y106.464 E16.78711
G1 X110.168 Y106.729 E16.79817
G1 X109.962 Y106.935 E16.8128
G1 X109.559 Y107.473 E16.84654
G1 X109.243 Y108.059 E16.87997
G1 X109.012 Y108.676 E16.91304
G1 X108.866 Y109.335 E16.94693
G1 X108.865 Y109.36 E16.94818
G1 X108.835 Y109.782 E16.96942
G1 X108.821 Y109.925 E16.97664
G1 X108.817 Y109.955 E16.97815
G1 X108.856 Y110.553 E17.00824
G1 X108.878 Y110.718 E17.0166
G1 X109.007 Y111.32 E17.0475
G1 X109.243 Y111.944 E17.081
G1 X109.562 Y112.527 E17.11436
G1 X109.961 Y113.064 E17.14794
G1 X110.167 Y113.27 E17.16257
G1 X110.433 Y113.536 E17.18145
G1 X110.483 Y113.573 E17.18458
G1 X110.434 Y113.573
G1 X110.058 Y113.573 E17.19567
G1 X106.073 Y113.575 E17.39572
G1 X106.073 Y138.175 E18.63069
G1 X82.973 Y138.175 E19.79036
G1 X82.973 Y113.575 E21.02533
G1 X78.988 Y113.574 E21.22538
G1 X78.614 Y113.574 E21.24416
G1 X78.564 Y113.573 E21.24667
G1 X78.614 Y113.536 E21.24727
G1 X78.878 Y113.271 E21.25833
G1 X79.083 Y113.066 E21.27288
G1 X79.485 Y112.532 E21.30644
G1 X79.805 Y111.943 E21.34009
G1 X80.04 Y111.319 E21.37356
G1 X80.183 Y110.659 E21.40746
G1 X80.207 Y110.25 E21.42803
G1 X80.233 Y110.063 E21.43751
G1 X80.189 Y109.444 E21.46866
G1 X80.168 Y109.282 E21.47686
G1 X80.04 Y108.681 E21.50771
G1 X79.805 Y108.057 E21.54119
G1 X79.485 Y107.468 E21.57484
G1 X79.083 Y106.934 E21.60839
G1 X78.879 Y106.729 E21.62291
G1 X78.614 Y106.464 E21.64172
G1 X78.564 Y106.427 E21.64485
G1 X78.613 Y106.427
G1 X78.988 Y106.427 E21.65591
G1 X82.973 Y106.425 E21.85596
G1 X82.973 Y81.825 E23.09093
G0 F6000 X82.623 Y81.475
G1 F1200 X106.423 Y81.475 E24.28574
G1 X106.423 Y106.075 E25.52071
G1 X111.058 Y106.076 E25.7534
G1 X111.156 Y106.076 E25.75832
G1 X111.674 Y106.077 E25.78432
G1 X111.156 Y106.359 E25.7979
G1 X111.078 Y106.417 E25.80234
G1 X110.663 Y106.729 E25.8284
G1 X110.227 Y107.165 E25.85935
G1 X109.855 Y107.662 E25.89052
G1 X109.562 Y108.204 E25.92145
G1 X109.348 Y108.776 E25.95211
G1 X109.213 Y109.385 E25.98343
G1 X109.212 Y109.41 E25.98468
G1 X109.183 Y109.818 E26.00522
G1 X109.172 Y109.932 E26.01097
G1 X109.168 Y109.962 E26.01248
G1 X109.205 Y110.519 E26.04051
G1 X109.223 Y110.659 E26.04759
G1 X109.344 Y111.221 E26.07645
G1 X109.562 Y111.798 E26.10742
G1 X109.857 Y112.338 E26.13831
G1 X110.227 Y112.835 E26.16942
G1 X110.663 Y113.271 E26.20037
G1 X111.076 Y113.581 E26.22629
G1 X111.156 Y113.641 E26.23131
G1 X111.674 Y113.923 E26.26092
G1 X111.157 Y113.923 E26.27084
G1 X111.057 Y113.923 E26.27541
G1 X106.423 Y113.925 E26.50804
G1 X106.423 Y138.525 E27.74301
G1 X82.623 Y138.525 E28.93782
G1 X82.623 Y113.925 E30.17279
G1 X77.989 Y113.924 E30.40543
G1 X77.89 Y113.924 E30.4104
G1 X77.373 Y113.923 E30.43635
G1 X77.89 Y113.641 E30.44991
G1 X77.969 Y113.582 E30.45441
G1 X78.384 Y113.271 E30.48044
G1 X78.818 Y112.836 E30.51129
G1 X79.19 Y112.342 E30.54234
G1 X79.486 Y111.797 E30.57347
G1 X79.703 Y111.22 E30.60442
G1 X79.835 Y110.611 E30.6357
G1 X79.86 Y110.202 E30.65627
G1 X79.881 Y110.051 E30.66393
G1 X79.841 Y109.479 E30.69271
G1 X79.823 Y109.341 E30.6997
G1 X79.703 Y108.78 E30.7285
G1 X79.486 Y108.203 E30.75945
G1 X79.19 Y107.658 E30.79058
G1 X78.818 Y107.164 E30.82163
G1 X78.384 Y106.729 E30.85247
G1 X77.97 Y106.418 E30.87847
G1 X77.89 Y106.359 E30.88346
G1 X77.373 Y106.077 E30.91302
G1 X77.889 Y106.077 E30.92292
G1 X77.989 Y106.077 E30.92749
G1 X82.623 Y106.075 E31.16012
G1 X82.623 Y81.475 E32.39509
G1 F1500 E25.89509
G1 F300 Z0.8
G0 F6000 X76.669 Y113.818 Z0.8
G1 F300 Z0.3
G1 F1500 E32.39509
G1 F1200 X77.201 Y113.618 E32.42362
G1 X77.7 Y113.346 E32.45215
G1 X78.154 Y113.006 E32.48063
G1 X78.553 Y112.606 E32.50899
G1 X78.895 Y112.152 E32.53753
G1 X79.167 Y111.651 E32.56615
G1 X79.366 Y111.121 E32.59457
G1 X79.487 Y110.563 E32.62323
G1 X79.513 Y110.154 E32.6438
G1 X79.529 Y110.039 E32.64963
G1 X79.493 Y109.514 E32.67605
G1 X79.478 Y109.401 E32.68177
G1 X79.366 Y108.879 E32.70858
G1 X79.167 Y108.349 E32.737
G1 X78.895 Y107.848 E32.76562
G1 X78.553 Y107.394 E32.79415
G1 X78.154 Y106.994 E32.82251
G1 X77.7 Y106.654 E32.85099
G1 X77.201 Y106.382 E32.87952
G1 X76.669 Y106.182 E32.90805
G1 X76.174 Y106.076 E32.93346
G1 X76.115 Y106.064 E32.93649
G1 X75.548 Y106.021 E32.96503
G1 X75.488 Y106.025 E32.96805
G1 X75.177 Y106.049 E32.98371
G1 X74.982 Y106.064 E32.99353
G1 X74.934 Y106.074 E32.99599
G1 X74.611 Y106.142 E33.01256
G1 X74.427 Y106.182 E33.02202
G1 X74.366 Y106.205 E33.02529
G1 X74.064 Y106.318 E33.04148
G1 X73.896 Y106.382 E33.0505
G1 X73.837 Y106.414 E33.05387
G1 X73.568 Y106.56 E33.06924
G1 X73.396 Y106.654 E33.07908
G1 X73.329 Y106.704 E33.08327
G1 X73.068 Y106.9 E33.09966
G1 X72.943 Y106.994 E33.10751
G1 X72.892 Y107.045 E33.11113
G1 X72.644 Y107.293 E33.12874
G1 X72.542 Y107.395 E33.13598
G1 X72.487 Y107.468 E33.14057
G1 X72.305 Y107.712 E33.15585
G1 X72.201 Y107.851 E33.16456
G1 X72.146 Y107.954 E33.17043
G1 X72.006 Y108.211 E33.18512
G1 X71.931 Y108.349 E33.193
G1 X71.894 Y108.45 E33.1984
G1 X71.783 Y108.746 E33.21427
G1 X71.734 Y108.876 E33.22125
G1 X71.704 Y109.015 E33.22839
G1 X71.64 Y109.303 E33.2432
G1 X71.61 Y109.435 E33.24999
G1 X71.609 Y109.46 E33.25125
G1 X71.601 Y109.583 E33.25744
G1 X71.581 Y109.855 E33.27113
G1 X71.573 Y109.939 E33.27537
G1 X71.569 Y109.969 E33.27688
G1 X71.579 Y110.134 E33.28518
G1 X71.599 Y110.438 E33.30048
G1 X71.603 Y110.485 E33.30285
G1 X71.618 Y110.599 E33.30862
G1 X71.641 Y110.706 E33.31411
G1 X71.7 Y110.981 E33.32823
G1 X71.731 Y111.122 E33.33548
G1 X71.786 Y111.268 E33.34331
G1 X71.894 Y111.555 E33.35871
G1 X71.931 Y111.652 E33.36392
G1 X71.989 Y111.758 E33.36998
G1 X72.163 Y112.079 E33.38831
G1 X72.202 Y112.149 E33.39234
G1 X72.298 Y112.278 E33.40041
G1 X72.487 Y112.531 E33.41626
G1 X72.542 Y112.605 E33.42089
G1 X72.643 Y112.706 E33.42806
G1 X72.892 Y112.955 E33.44574
G1 X72.943 Y113.006 E33.44936
G1 X73.067 Y113.099 E33.45714
G1 X73.327 Y113.294 E33.47346
G1 X73.396 Y113.346 E33.4778
G1 X73.567 Y113.439 E33.48757
G1 X73.836 Y113.585 E33.50293
G1 X73.896 Y113.618 E33.50637
G1 X74.063 Y113.68 E33.51531
G1 X74.365 Y113.794 E33.53152
G1 X74.427 Y113.818 E33.53486
G1 X74.61 Y113.856 E33.54424
G1 X74.933 Y113.925 E33.56082
G1 X74.982 Y113.936 E33.56334
G1 X75.176 Y113.95 E33.57311
G1 X75.482 Y113.974 E33.58851
G1 X75.548 Y113.979 E33.59184
G1 X76.115 Y113.936 E33.62038
G1 X76.165 Y113.926 E33.62294
G1 X76.669 Y113.818 E33.64882
G0 F6000 X76.57 Y113.481
G1 F1200 X77.055 Y113.299 E33.67483
G1 X77.51 Y113.051 E33.70084
G1 X77.924 Y112.741 E33.7268
G1 X78.288 Y112.376 E33.75268
G1 X78.6 Y111.962 E33.77871
G1 X78.848 Y111.505 E33.80481
G1 X79.029 Y111.022 E33.8307
G1 X79.133 Y110.539 E33.85551
G1 X79.139 Y110.514 E33.8568
G1 X79.14 Y110.489 E33.85805
G1 X79.166 Y110.106 E33.87733
G1 X79.177 Y110.027 E33.88133
G1 X79.144 Y109.548 E33.90543
G1 X79.133 Y109.46 E33.90989
G1 X79.029 Y108.978 E33.93464
G1 X78.848 Y108.495 E33.96054
G1 X78.6 Y108.038 E33.98664
G1 X78.288 Y107.624 E34.01266
G1 X77.924 Y107.259 E34.03854
G1 X77.51 Y106.949 E34.06451
G1 X77.055 Y106.701 E34.09052
G1 X76.57 Y106.519 E34.11653
G1 X76.065 Y106.411 E34.14245
G1 X75.548 Y106.372 E34.16848
G1 X75.032 Y106.411 E34.19446
G1 X74.526 Y106.519 E34.22043
G1 X74.042 Y106.701 E34.24639
G1 X73.586 Y106.949 E34.27245
G1 X73.173 Y107.259 E34.29837
G1 X72.807 Y107.625 E34.32436
G1 X72.497 Y108.04 E34.35036
G1 X72.25 Y108.495 E34.37635
G1 X72.07 Y108.976 E34.40214
G1 X71.957 Y109.485 E34.42831
G1 X71.956 Y109.511 E34.42962
G1 X71.929 Y109.893 E34.44884
G1 X71.92 Y109.976 E34.45303
G1 X71.952 Y110.452 E34.47698
G1 X71.963 Y110.54 E34.48144
G1 X72.068 Y111.023 E34.50625
G1 X72.25 Y111.506 E34.53216
G1 X72.497 Y111.96 E34.55811
G1 X72.807 Y112.375 E34.58411
G1 X73.173 Y112.741 E34.6101
G1 X73.586 Y113.051 E34.63602
G1 X74.042 Y113.299 E34.66208
G1 X74.526 Y113.481 E34.68804
G1 X75.032 Y113.589 E34.71401
G1 X75.548 Y113.628 E34.73999
G1 X76.065 Y113.589 E34.76602
G1 X76.57 Y113.481 E34.79195
G0 F6000 X76.471 Y113.144
G1 F1200 X76.909 Y112.98 E34.81542
G1 X77.32 Y112.756 E34.83892
G1 X77.694 Y112.476 E34.86238
G1 X78.023 Y112.146 E34.88577
G1 X78.305 Y111.772 E34.90929
G1 X78.529 Y111.36 E34.93283
G1 X78.692 Y110.923 E34.95624
G1 X78.792 Y110.465 E34.97978
G1 X78.819 Y110.06 E35.00015
G1 X78.825 Y110.015 E35.00243
G1 X78.796 Y109.582 E35.02422
G1 X78.788 Y109.52 E35.02736
G1 X78.692 Y109.077 E35.05011
G1 X78.529 Y108.64 E35.07353
G1 X78.305 Y108.228 E35.09707
G1 X78.023 Y107.854 E35.12059
G1 X77.694 Y107.524 E35.14398
G1 X77.32 Y107.244 E35.16743
G1 X76.909 Y107.02 E35.19093
G1 X76.471 Y106.856 E35.21441
G1 X76.015 Y106.758 E35.23783
G1 X75.548 Y106.723 E35.26134
G1 X75.082 Y106.758 E35.2848
G1 X74.625 Y106.856 E35.30826
G1 X74.188 Y107.02 E35.33169
G1 X73.776 Y107.244 E35.35523
G1 X73.403 Y107.524 E35.37865
G1 X73.072 Y107.855 E35.40215
G1 X72.792 Y108.229 E35.4256
G1 X72.569 Y108.64 E35.44908
G1 X72.406 Y109.076 E35.47244
G1 X72.304 Y109.535 E35.49605
G1 X72.277 Y109.935 E35.51618
G1 X72.271 Y109.985 E35.5187
G1 X72.3 Y110.418 E35.54049
G1 X72.308 Y110.48 E35.54363
G1 X72.405 Y110.924 E35.56644
G1 X72.569 Y111.36 E35.58983
G1 X72.792 Y111.771 E35.6133
G1 X73.072 Y112.145 E35.63676
G1 X73.403 Y112.476 E35.66026
G1 X73.776 Y112.756 E35.68367
G1 X74.188 Y112.98 E35.70721
G1 X74.625 Y113.144 E35.73065
G1 X75.082 Y113.242 E35.75411
G1 X75.548 Y113.277 E35.77757
G1 X76.015 Y113.242 E35.80108
G1 X76.471 Y113.144 E35.8245
G0 F6000 X76.379 Y112.831
;TYPE:WALL-OUTER
G1 F1200 X76.774 Y112.684 E35.84565
G1 X77.144 Y112.482 E35.86682
G1 X77.48 Y112.23 E35.8879
G1 X77.777 Y111.932 E35.90902
G1 X78.031 Y111.596 E35.93017
G1 X78.232 Y111.225 E35.95135
G1 X78.379 Y110.831 E35.97246
G1 X78.469 Y110.419 E35.99363
G1 X78.495 Y110.038 E36.01281
G1 X78.499 Y110.006 E36.01442
G1 X78.472 Y109.614 E36.03415
G1 X78.467 Y109.575 E36.03612
G1 X78.379 Y109.169 E36.05698
G1 X78.232 Y108.775 E36.07809
G1 X78.031 Y108.404 E36.09927
G1 X77.777 Y108.068 E36.12042
G1 X77.48 Y107.77 E36.14154
G1 X77.144 Y107.518 E36.16262
G1 X76.774 Y107.316 E36.18379
G1 X76.379 Y107.169 E36.20495
G1 X75.968 Y107.08 E36.22606
G1 X75.548 Y107.049 E36.2472
G1 X75.129 Y107.08 E36.26829
G1 X74.717 Y107.169 E36.28945
G1 X74.323 Y107.316 E36.31056
G1 X73.952 Y107.518 E36.33177
G1 X73.616 Y107.77 E36.35285
G1 X73.318 Y108.068 E36.37401
G1 X73.066 Y108.405 E36.39514
G1 X72.865 Y108.775 E36.41628
G1 X72.718 Y109.168 E36.43734
G1 X72.627 Y109.581 E36.45857
G1 X72.601 Y109.962 E36.47774
G1 X72.597 Y109.994 E36.47936
G1 X72.624 Y110.386 E36.49909
G1 X72.629 Y110.425 E36.50106
G1 X72.718 Y110.832 E36.52198
G1 X72.865 Y111.225 E36.54304
G1 X73.066 Y111.595 E36.56418
G1 X73.318 Y111.932 E36.5853
G1 X73.616 Y112.23 E36.60646
G1 X73.952 Y112.482 E36.62755
G1 X74.323 Y112.684 E36.64875
G1 X74.717 Y112.831 E36.66986
G1 X75.129 Y112.92 E36.69102
G1 X75.548 Y112.951 E36.71212
G1 X75.968 Y112.92 E36.73326
G1 X76.379 Y112.831 E36.75437
G0 F6000 X76.566 Y112.762
G0 X76.699 Y113.123
G1 F1500 E30.25437
G1 F300 Z0.8
G0 F6000 X113.498 Y113.979 Z0.8
;TYPE:WALL-INNER
G1 F300 Z0.3
G1 F1500 E36.75437
G1 F1200 X113.695 Y113.965 E36.76428
G1 X114.044 Y113.938 E36.78186
G1 X114.065 Y113.936 E36.78292
G1 X114.253 Y113.896 E36.79257
G1 X114.6 Y113.822 E36.81038
G1 X114.619 Y113.818 E36.81135
G1 X114.814 Y113.745 E36.82181
G1 X115.119 Y113.63 E36.83817
G1 X115.151 Y113.618 E36.83988
G1 X115.36 Y113.504 E36.85184
G1 X115.617 Y113.364 E36.86653
G1 X115.65 Y113.346 E36.86842
G1 X115.841 Y113.203 E36.88039
G1 X116.085 Y113.02 E36.89571
G1 X116.103 Y113.006 E36.89685
G1 X116.278 Y112.831 E36.90927
G1 X116.504 Y112.606 E36.92528
G1 X116.642 Y112.422 E36.93683
G1 X116.845 Y112.151 E36.95383
